blockchains/elrond/assets/AERO-458bbf/logo.svg

<svg fill="none" height="262" viewBox="0 0 262 262" width="262" xmlns="http://www.w3.org/2000/svg"><circle cx="131.621" cy="130.379" fill="#fff" r="129.137"/><g fill="#000"><path d="m49.5059 163.132c17.192-36.03 34.5079-72.0513 51.7171-108.2226.682-.1328 1.23-.1328 1.912-.2743 9.281 16.8115 18.696 33.4373 28.252 50.7709-29.889 16.236-57.4602 34.526-81.8811 57.726z"/><path d="m132.342 186.88c-.955.681-1.769 1.637-2.866 2.044-20.201 8.326-40.5339 16.104-62.2297 19.112-5.8973.819-11.8882.679-17.7406-.416-9.8303-1.911-13.5112-9.273-9.2818-18.404 2.7797-5.832 6.3529-11.251 10.6179-16.104 15.9267-17.873 35.4812-31.252 55.6812-43.807 28.934-18.015 59.637-32.6145 91.137-45.5771 2.176-.8229 4.229-1.9112 6.68-3.0084-1.495-2.8668-2.725-5.0435-3.681-6.6804h23.492l.407.8141-14.741 6.5476c-43.666 19.1122-84.881 42.1702-121.7244 72.6082-6.2822 5.185-11.6088 11.458-17.0593 17.334-1.8951 2.171-3.4495 4.617-4.6099 7.255-4.0967 8.733-.6813 15.697 8.8482 16.511 8.3385.745 16.7372.457 25.0054-.858 10.786-1.637 21.43-4.778 32.074-7.371z"/><path d="m112.823 143.48c10.37-6.141 19.519-11.733 29.615-17.697 12.556 23.89 24.704 47.223 36.986 70.556-.407.407-.823.681-1.23 1.097-21.289-17.652-42.711-35.26-65.371-53.956z"/></g></svg>

<svg width="262" height="262" viewBox="0 0 262 262" fill="none" xmlns="http://www.w3.org/2000/svg">
<circle cx="131.621" cy="130.379" r="129.137" fill="white"/>
<path d="M49.5059 163.132C66.6979 127.102 84.0138 91.0807 101.223 54.9094C101.905 54.7766 102.453 54.7766 103.135 54.6351C112.416 71.4466 121.831 88.0724 131.387 105.406C101.498 121.642 73.9268 139.932 49.5059 163.132Z" fill="black"/>
<path d="M132.342 186.88C131.387 187.561 130.573 188.517 129.476 188.924C109.275 197.25 88.9421 205.028 67.2463 208.036C61.349 208.855 55.3581 208.715 49.5057 207.62C39.6754 205.709 35.9945 198.347 40.2239 189.216C43.0036 183.384 46.5768 177.965 50.8418 173.112C66.7685 155.239 86.323 141.86 106.523 129.305C135.457 111.29 166.16 96.6905 197.66 83.7279C199.836 82.905 201.889 81.8167 204.34 80.7195C202.845 77.8527 201.615 75.676 200.659 74.0391H224.151L224.558 74.8532L209.817 81.4008C166.151 100.513 124.936 123.571 88.0926 154.009C81.8104 159.194 76.4838 165.467 71.0333 171.343C69.1382 173.514 67.5838 175.96 66.4234 178.598C62.3267 187.331 65.7421 194.295 75.2716 195.109C83.6101 195.854 92.0088 195.566 100.277 194.251C111.063 192.614 121.707 189.473 132.351 186.88H132.342Z" fill="black"/>
<path d="M112.823 143.48C123.193 137.339 132.342 131.747 142.438 125.783C154.994 149.673 167.142 173.006 179.424 196.339C179.017 196.746 178.601 197.02 178.194 197.436C156.905 179.784 135.483 162.176 112.823 143.48Z" fill="black"/>
</svg>
